**kern	**kern
*staff1	*staff1
*head1[head1a]	*head1[head1a]
*head1[head1b]	*head1[head1b]
*head1[head1aa]	*head1[head1aa]
*solo1[solo1a]	*solo1[solo1a]
*solo1[solo1b]	*solo1[solo1b]
*solo1[solo1aa]	*solo1[solo1aa]
*solo2[solo2a]	*solo2[solo2a]
*solo2[solo2b]	*solo2[solo2b]
*solo2[solo2aa]	*solo2[solo2aa]
=1-	=1-
*clefG2	*clefG2
*k[]	*k[]
*b-:	*b-:
*M4/4	*M4/4
8r	1B-:min
*>head1a	*>head1a
{4ff\	.
8dd-\	.
8b-/L	.
8f/J	.
8r	.
8f/	.
=2	=2
8ee-/L	2C:min
8g/	.
8b-/	.
8a/J	.
4r	2F:dom
8r	.
8f/	.
=3	=3
8g\L	1B-:min
8dd-\	.
8cc\	.
8b-\J	.
8ee-\L	.
8cc\	.
8dd-\	.
[8g\J	.
=4	=4
8g/]	2C:min
4d-/	.
8d-/	.
8g-/L	2F:dom
8B/	.
8A/	.
[8B-/J	.
=5	=5
8B-/]	1B-:min
4ff\	.
8dd-\	.
8b-/L	.
8f/J	.
8r	.
8f/	.
=6	=6
8g-\L	1F:dom:9-
8b-\	.
8cc\	.
8b-\J	.
8dd-\L	.
8b-\	.
8cc\	.
8b-\J}	.
=7	=7
2r	1B-:min
4r	.
8r	.
8f/	.
=8	=8
{16a-/LL	1F:dom:9-:9+
16g-/J	.
[8a-/	.
8a-/]	.
8g-/J	.
16a-/LL	.
16g-/J	.
[8a-/J	.
4a-/]}	.
=9	=9
8r	1B-:min
{4ff\	.
8dd-\	.
8b-/L	.
8f/J	.
8r	.
8f/	.
=10||	=10||
8ee-/L	2C:min
8g/	.
8b-/	.
8a/J	.
4r	2F:dom
8r	.
8f/	.
=11	=11
8g\L	1B-:min
8dd-\	.
8cc\	.
8b-\J	.
8ee-\L	.
8cc\	.
8dd-\	.
[8g\J	.
=12	=12
8g/]	2C:min
4d-/	.
8d-/	.
8g-/L	2F:dom
8B/	.
8A/	.
[8B-/J	.
=13	=13
8B-/]}	1B-:min
{4ff\	.
8dd-\	.
8b-/L	.
8f/J	.
8r	.
8f/	.
=14	=14
8g-/L	1F:dom:9-
8f/	.
8d-/	.
8c/J	.
4B/	.
8A/L	.
8B-/J	.
=15	=15
4r	1B-:min
16F/LL	.
16G/	.
16A/	.
16B-/JJ	.
8c/L	.
8B-/J	.
12A/L	.
12B-/	.
12c/J	.
=16	=16
8d-/L	1B-:min
[8f/J	.
4f/]}	.
2r	.
=17	=17
8r	1F:min
*>head1b	*>head1b
{8e/	.
12f/L	.
12a-/	.
12cc/J	.
[2ee-\	.
=18||	=18||
4ee-\]	1B-:dom
8dd\L	.
8dd-\J	.
8cc\L	.
8b\	.
8b-\	.
8a\J	.
=19	=19
8a-/L	2B-:dom
8g/J	.
4g-/	.
4r	2E-:min
8e-/L	.
[8f/J	.
=20	=20
4.f/]	1E-:min
16e-/LL	.
16d-/JJ	.
8g-/L	.
[8e-/J	.
4e-/]}	.
=21	=21
2r	1E-:min
{8ff\L	.
16ee-\L	.
16dd-\J	.
8b-\	.
8g-\J	.
=22	=22
8e-/L	1A-:dom
8B-/	.
8d-/	.
8B-/J	.
8c/	.
4f/	.
8e-/	.
=23	=23
8a-/L	1D-:maj
8e/J	.
12f/L	.
12a-/	.
12cc/J	.
8ee-\L	.
8dd\	.
8dd-\	.
16ee-\L	.
16dd-\JJ	.
=24	=24
8cc\L	1F:dom:9-
8b-\J	.
12a\L	.
12cc\	.
12ee-\J	.
8gg-\L	.
8ff\J}	.
4r	.
=25	=25
8r	1B-:min
*>head1aa	*>head1aa
{4ff\	.
8dd-\	.
8b-/L	.
8f/J	.
8r	.
8f/	.
=26||	=26||
8ee-/L	2C:min
8g/	.
8b-/	.
8a/J	.
4r	2F:dom
8r	.
8f/	.
=27	=27
8g\L	1B-:min
8dd-\	.
8cc\	.
8b-\J	.
8ee-\L	.
8cc\	.
8dd-\	.
[8g\J	.
=28	=28
8g/]	2C:min
4d-/	.
8d-/	.
8g-/L	2F:dom
8B/	.
8A/	.
[8B-/J	.
=29	=29
8B-/]	1B-:min
4ff\	.
8dd-\	.
8b-/L	.
8f/J	.
8r	.
8f/	.
=30	=30
8g-/L	1F:dom:9-
8f/	.
8d-/	.
8c/J	.
4B/	.
8A/L	.
8B-/J	.
=31	=31
8r	1B-:min
16c/LL	.
16B-/JJ	.
12F/L	.
12G/	.
12B-/J	.
8c/L	.
8B-/J	.
12A/L	.
12c/	.
12e-/J	.
=32	=32
8g-/L	1F:dom:9-
8f/	.
8d-/	.
8c/J	.
4B/}	.
4r	.
=33	=33
4r	1B-:min
8r	.
*>solo1a	*>solo1a
{16c/LL	.
16B-/JJ	.
8F/L	.
8G/	.
8c/	.
8d-/J	.
=34||	=34||
8c/L	2C:min
8B-/J	.
12A/L	.
12c/	.
12e-/J	.
8g-/L	2F:dom
8f/	.
8d-/	.
8Bn/J	.
=35	=35
4.c/	1B-:min
8e-/	.
2G/}	.
=36	=36
2r	2C:min
2r	2F:dom
=37	=37
2r	1B-:min
{8g\L	.
8b-\	.
8dd-\	.
8ee-\J	.
=38	=38
12ee\L	1F:dom
12ff#\	.
12ee\J	.
8ee-\L	.
8dd-\J	.
8cc\L	.
8b-\J	.
12a\L	.
12b-\	.
12bn\J	.
=39	=39
8cc/L	1B-:min
8a/	.
8b-/	.
[8f/J	.
4f/]}	.
4r	.
=40	=40
2r	1F:dom
8r	.
{4ee\	.
8cc#\	.
=41	=41
2ee-\	1B-:min
8dd-\L	.
8b-\J	.
4r	.
=42||	=42||
4g/	2C:min
8b-/L	.
8a/J	.
4r	2F:dom
8r	.
8dd-\	.
=43	=43
8b-/L	1B-:min
8f/	.
8d-/	.
8B-/J	.
12a-/L	.
12b-/	.
12a-/J	.
8g-/L	.
8f/J	.
=44	=44
8e-/L	2C:min
8d-/	.
8c/	.
8B-/J	.
8A/	2F:dom
4f#/	.
[8en/	.
=45	=45
8e/L]	1B-:min
8d-/	.
8B-/	.
8F/J	.
8e/L	.
8f/J	.
12e/L	.
12e-/	.
12d-/J	.
=46	=46
8c/L	1F:dom:9-
8B-/J	.
12A/L	.
12c/	.
12e-/J	.
8g-/L	.
8f/	.
8Bn/	.
8A/J	.
=47	=47
8B-/L	1B-:min
8f/	.
8A-/	.
8G-/J	.
4Gn/}	.
4r	.
=48	=48
1r	1B-:min
=49	=49
8r	1F:min
*>solo1b	*>solo1b
{8f/	.
12a-\L	.
12b\	.
12ee-\J	.
2gg-\	.
=50||	=50||
8ff\L	1B-:dom
8ee-\	.
8dd\	.
8f\J	.
8a-/L	.
8b/	.
8b-/	.
8a-/J	.
=51	=51
8g-/L	1E-:min
8B-/	.
8e-/	.
8g-/J	.
8f/L	.
8e-/	.
8d/	.
8c/J	.
=52	=52
8f/L	1E-:min
8e-/J}	.
4r	.
4r	.
{8ff\L	.
16ee-\L	.
16dd-\JJ	.
=53	=53
8b-/L	1E-:min
8g-/	.
8e-/	.
8B-/J	.
8d-/L	.
8Bn/	.
8c/	.
8f/J	.
=54	=54
12e/L	1A-:dom
12f/	.
12e/J	.
8b\L	.
8b-\J	.
24a/LL	.
24b-/	.
24a/JJ	.
8g-/L	.
8e/	.
8d-/J	.
=55	=55
8a-/L	1D-:maj
8e/J	.
12f/L	.
12a-/	.
12cc/J	.
8ee-\L	.
8dd\	.
8dd-\	.
16ee-\L	.
16dd-\JJ	.
=56	=56
8cc\L	1F:dom
8b-\J	.
4a/}	.
4r	.
8r	.
*>solo1aa	*>solo1aa
{[8cc\	.
=57	=57
4cc\]	1B-:min
8b-/L	.
8f/J	.
8a-/L	.
8g/	.
8d-/	.
8B-/J	.
=58||	=58||
4g-/	2C:min
2g-/}	2F:dom
4r	.
=59	=59
2r	1B-:min
{8e/L	.
8f/	.
8g-/	.
8f/J	.
=60	=60
[2e-/	2C:min
8e-/L]	2F:dom
8d-/	.
8c/	.
8B-/J	.
=61	=61
8A/L	1B-:min
8f#/	.
8e-/	.
8en/J	.
8fn/L	.
8d-/	.
8B-/	.
8F/J	.
=62	=62
12e/L	1F:dom
12f/	.
12e/J	.
8e-/L	.
8d-/J	.
8c/L	.
8B-/	.
8A/	.
8c/J	.
=63	=63
8g-/L	1B-:min
8f/J	.
2d-/}	.
4r	.
=64	=64
2r	1F:dom
8r	.
*>solo2a	*>solo2a
{16B-/LL	.
16A-/J	.
8F/	.
8B-/J	.
=65	=65
8d-/L	1B-:min
8B-/	.
8G/	.
8B-/J	.
8c/L	.
8A/	.
8B-/	.
8c/J	.
=66||	=66||
8d-/L	2C:min
8e-/	.
8en/	.
8f/J	.
8g-/L	2F:dom
8f/J	.
24e-/LL	.
24f/	.
24e-/JJ	.
8c/	.
=67	=67
4d-/}	1B-:min
4r	.
2r	.
=68	=68
4r	2C:min
8r	.
{[8dd-\	.
4dd-\_	2F:dom
8dd-/L]	.
8a/J	.
=69	=69
8b-/L	1B-:min
8f/	.
8d-/	.
8B-/J	.
12f#/L	.
12g/	.
12f#/J	.
8fn/L	.
8e-/J}	.
=70	=70
2r	1F:dom
8r	.
{8d-/L	.
8c/	.
8B-/J	.
=71	=71
12A/L	1B-:min
12B-/	.
12Bn/J	.
8c/L	.
8A/J	.
8B-/L	.
[8G/J	.
4G/]}	.
=72	=72
1r	1F:dom
=73	=73
{8f\L	1B-:min
8b-\	.
8dd-\	.
8ff\J	.
4g/	.
4g/	.
=74||	=74||
4ee-\	2C:min
8ee-\L	.
[8cc\J	.
4cc\]}	2F:dom
4r	.
=75	=75
4r	1B-:min
{8ee-\L	.
8cc\J	.
12dd-\L	.
12ee-\	.
12dd-\J	.
8cc\L	.
8b-\J	.
=76	=76
8a/L	2C:min
8A/	.
8c/	.
[8f#/J	.
4f#/]	2F:dom
4fn/}	.
=77	=77
2r	1B-:min
{12c/L	.
12c#/	.
12d/J	.
12e-/L	.
12d/	.
12d-/J	.
=78	=78
8c/L	1F:dom:9-
8A/J	.
12B-/L	.
12c/	.
12g-/J	.
4f/	.
8Bn/L	.
8A/J	.
=79	=79
8B/L	1B-:min
8f/	.
8A-/	.
8G-/J	.
4Gn/}	.
4r	.
=80	=80
2r	1B-:min
8r	.
{8f/	.
12a-\L	.
12cc\	.
12ee-\J	.
=81	=81
*>solo2b	*>solo2b
2gg\	1F:min
4aa-\	.
8ff\L	.
8ee-\J	.
=82||	=82||
8dd/L	1B-:dom
8f/	.
8a-/	.
8b/J	.
8b-/L	.
8an/	.
8a-/	.
8b-/J	.
=83	=83
4g-/	1E-:min
8d/L	.
[8f/J	.
4f/]	.
8e-/L	.
8d/J	.
=84	=84
8e-/L	1E-:min
[8B-/J	.
4B-/]}	.
2r	.
=85	=85
{24cc\LL	1E-:min
24dd-\	.
24cc\JJ	.
8b\L	.
8b-\	.
8a\J	.
8a-/L	.
8g-/	.
8e-/	.
8B-/J	.
=86	=86
8d-/L	1A-:dom
8B-/	.
8c/	.
8f/J	.
8e/L	.
8c/	.
8a-/	.
8g-/J	.
=87	=87
12f/L	1D-:maj
12a-/	.
12cc/J	.
8ee-\L	.
8cc\J	.
8dd-/L	.
[8a-/J	.
4a-/]}	.
=88	=88
2r	1F:dom
4r	.
*>solo2a	*>solo2a
{8cc/L	.
8a/J	.
=89	=89
8b-/L	1B-:min
[8f/	.
8f/]	.
8B-/J	.
4f/}	.
4r	.
=90||	=90||
{4g-/	2C:h7
8f/L	.
[8B/J	.
4B/]	2F:dom
8r	.
8A/	.
=91	=91
8B-/L	1B-:min
8f/	.
8d-/	.
8B-/J	.
4e-/}	.
4r	.
=92	=92
4r	2C:min
{12d-/L	.
12c/	.
12B-/J	.
8A/L	2F:dom
8f#/	.
8e-/	.
8en/J	.
=93	=93
8f/L	1B-:min
8d-/	.
8B-/	.
8F/J	.
8e-/L	.
8d-/	.
8c/	.
8B-/J	.
=94	=94
12A/L	1F:dom:9-
12c/	.
12e-/J	.
8g-/L	.
8f/J	.
4.b\	.
8a/	.
=95	=95
4b-\	1B-:min
8ff/L	.
[8g/J	.
4g/]}	.
4r	.
=96	=96
4r	1F:dom
{16dd-\LL	.
16cc\	.
16b-\	.
16a-\JJ	.
24g/LL	.
24a-/	.
24b-/JJ	.
16dd-\LL	.
16cc\J	.
8b-\	.
8a-\J	.
=97	=97
16g/LL	1B-:min
16a-/J	.
8b-/J}	.
4r	.
2r	.
==	==
*-	*-
